src/assets/images/pencil.svg

<svg width="51" height="52" viewBox="0 0 51 52" fill="none" xmlns="http://www.w3.org/2000/svg">
<path d="M3.3012 46.5732L2.38476 48.7953L4.60692 47.8789L17.1005 42.7265L17.2851 42.6503L17.4264 42.5091L48.3319 11.6035L49.039 10.8964L48.3319 10.1893L40.9908 2.84816L40.2837 2.14105L39.5766 2.84816L8.671 33.7537L8.52978 33.8949L8.45364 34.0796L3.3012 46.5732Z" fill="#FFF0F2" stroke="#FF4000" stroke-width="2"/>
<path d="M16.8438 42.731C16.325 39.3922 14.2122 35.18 8.52186 34.2065" stroke="#FF4000" stroke-width="2"/>
<path d="M9.84863 45.6499C9.00136 43.8591 7.57878 42.1627 5.31358 41.1149" stroke="#FF4000" stroke-width="2"/>
<path d="M15.4536 38.7495L41.7954 12.4077M12.4308 35.7267L38.7726 9.3849" stroke="#FF4000" stroke-width="2"/>
<path d="M43.9546 14.5674L36.6134 7.22623" stroke="#FF4000" stroke-width="2"/>
</svg>

<svg width="51" height="52" fill="none" xmlns="http://www.w3.org/2000/svg"><path d="M3.301 46.573l-.916 2.222 2.222-.916L17.1 42.727l.184-.077.141-.14 30.906-30.906.707-.708-.707-.707-7.341-7.34-.707-.708-.707.707L8.67 33.754l-.141.14-.076.186L3.3 46.573z" fill="#FFF0F2" stroke="#FF4000" stroke-width="2"/><path d="M16.844 42.731c-.519-3.339-2.632-7.551-8.322-8.525M9.849 45.65c-.848-1.79-2.27-3.487-4.535-4.535m10.14-2.366l26.341-26.341M12.431 35.727L38.773 9.385m5.182 5.182l-7.342-7.34" stroke="#FF4000" stroke-width="2"/></svg>
